src/assets/filled/SafeHome.svg

<svg width="24" height="24" viewBox="0 0 24 24"  xmlns="http://www.w3.org/2000/svg">
<path d="M23.0001 15.3704V17.5604C23.0001 20.0004 21.2201 22.3004 18.8001 22.9704C18.6301 23.0104 18.4501 23.0104 18.2901 22.9704C17.1101 22.6504 16.0701 21.9304 15.3401 21.0004C14.5501 20.0204 14.0901 18.8104 14.0901 17.5604V15.3704C14.0901 14.9504 14.4001 14.4904 14.7801 14.3304L17.5601 13.1904C18.1901 12.9404 18.8901 12.9404 19.5201 13.1904L20.5201 13.6004L22.3101 14.3304C22.6901 14.4904 23.0001 14.9504 23.0001 15.3704Z" />
<path d="M20.95 11.0103L20.77 12.0803L20.07 11.8003C19.08 11.4003 18 11.4003 16.99 11.8003L14.2 12.9503C13.25 13.3503 12.59 14.3403 12.59 15.3703V17.5603C12.59 18.7503 12.92 19.9403 13.53 21.0003H6.18004C4.81004 21.0003 3.52004 19.9103 3.29004 18.5603L2.03004 11.0103C1.87004 10.0803 2.34004 8.83028 3.08004 8.24028L9.66004 2.98028C10.67 2.17028 12.31 2.17028 13.32 2.99028L19.9 8.24028C20.63 8.83028 21.11 10.0803 20.95 11.0103Z" />
</svg>

<?xml version="1.0" encoding="UTF-8"?>
<svg width="24" height="24" viewBox="0 0 24 24" xmlns="http://www.w3.org/2000/svg">
 <path d="m23 15.37v2.19c0 2.44-1.78 4.74-4.2 5.41-0.17 0.04-0.35 0.04-0.51 0-1.18-0.32-2.22-1.04-2.95-1.97-0.79-0.98-1.25-2.19-1.25-3.44v-2.19c0-0.42 0.31-0.88 0.69-1.04l2.78-1.14c0.63-0.25 1.33-0.25 1.96 0l1 0.41 1.79 0.73c0.38 0.16 0.69 0.62 0.69 1.04z"/>
 <path d="m20.95 11.01-0.18 1.07-0.7-0.28c-0.99-0.4-2.07-0.4-3.08 0l-2.79 1.15c-0.95 0.4-1.61 1.39-1.61 2.42v2.19c0 1.19 0.33 2.38 0.94 3.44h-7.35c-1.37 0-2.66-1.09-2.89-2.44l-1.26-7.55c-0.16-0.93 0.31-2.18 1.05-2.77l6.58-5.26c1.01-0.81 2.65-0.81 3.66 0.01l6.58 5.25c0.73 0.59 1.21 1.84 1.05 2.77z"/>
</svg>
